src/img/hero/hero-bg-img-what.svg

<svg width="34" height="10" viewBox="0 0 34 10" fill="none" xmlns="http://www.w3.org/2000/svg">
<path d="M7.89846 7.17224L9.1581 0.514139H11.0797L9.00386 9.87146H7.06298L5.53985 3.61182L4.01671 9.87146H2.07584L0 0.514139H1.92159L3.18766 7.15938L4.73008 0.514139H6.36247L7.89846 7.17224Z" fill="white"/>
<path d="M13.8175 3.67609C14.3102 3.08483 14.9293 2.7892 15.6748 2.7892C17.1829 2.7892 17.9477 3.66538 17.9692 5.41774V9.87146H16.1118V5.46915C16.1118 5.07069 16.0261 4.77721 15.8548 4.58869C15.6834 4.39589 15.3985 4.29949 15 4.29949C14.4559 4.29949 14.0617 4.50943 13.8175 4.92931V9.87146H11.9602V0H13.8175V3.67609Z" fill="white"/>
<path d="M23.3997 9.87146C23.3141 9.70437 23.2519 9.49657 23.2134 9.24807C22.7635 9.74936 22.1787 10 21.4589 10C20.7776 10 20.2121 9.80291 19.7622 9.40874C19.3166 9.01457 19.0938 8.51757 19.0938 7.91774C19.0938 7.18081 19.3659 6.61525 19.91 6.22108C20.4584 5.82691 21.2489 5.62768 22.2815 5.62339H23.1362V5.22494C23.1362 4.9036 23.0527 4.64653 22.8856 4.45373C22.7228 4.26093 22.4636 4.16452 22.108 4.16452C21.7952 4.16452 21.5488 4.2395 21.3689 4.38946C21.1932 4.53942 21.1054 4.74507 21.1054 5.00643H19.2481C19.2481 4.60368 19.3723 4.23093 19.6208 3.88817C19.8693 3.54542 20.2207 3.27763 20.6748 3.08483C21.129 2.88775 21.6388 2.7892 22.2044 2.7892C23.0613 2.7892 23.7404 3.00557 24.2416 3.4383C24.7472 3.86675 25 4.47087 25 5.25064V8.26478C25.0043 8.92459 25.0964 9.42374 25.2763 9.76221V9.87146H23.3997ZM21.8638 8.57969C22.138 8.57969 22.3907 8.51971 22.6221 8.39974C22.8535 8.27549 23.0248 8.11054 23.1362 7.90488V6.70951H22.4422C21.5124 6.70951 21.0176 7.03085 20.9576 7.67352L20.9512 7.78278C20.9512 8.01414 21.0326 8.2048 21.1954 8.35476C21.3582 8.50471 21.581 8.57969 21.8638 8.57969Z" fill="white"/>
<path d="M28.6504 1.20823V2.91774H29.8393V4.28021H28.6504V7.75064C28.6504 8.00771 28.6997 8.19195 28.7982 8.30334C28.8967 8.41474 29.0853 8.47044 29.3638 8.47044C29.5694 8.47044 29.7515 8.45544 29.91 8.42545V9.8329C29.5458 9.9443 29.171 10 28.7853 10C27.4829 10 26.8188 9.34233 26.7931 8.02699V4.28021H25.7776V2.91774H26.7931V1.20823H28.6504Z" fill="white"/>
<path d="M30.9704 8.95887C30.9704 8.66324 31.069 8.42331 31.2661 8.23907C31.4674 8.05484 31.7181 7.96272 32.018 7.96272C32.3222 7.96272 32.5728 8.05484 32.7699 8.23907C32.9713 8.42331 33.072 8.66324 33.072 8.95887C33.072 9.25021 32.9734 9.488 32.7763 9.67224C32.5793 9.85219 32.3265 9.94216 32.018 9.94216C31.7138 9.94216 31.4632 9.85219 31.2661 9.67224C31.069 9.488 30.9704 9.25021 30.9704 8.95887Z" fill="white"/>
</svg>

<svg width="34" height="10" fill="none" xmlns="http://www.w3.org/2000/svg"><path d="M7.898 7.172L9.158.514h1.922L9.004 9.871H7.063L5.54 3.611l-1.523 6.26H2.076L0 .514h1.922L3.188 7.16 4.73.514h1.632l1.536 6.658zM13.818 3.676c.492-.591 1.111-.887 1.857-.887 1.508 0 2.273.876 2.294 2.629V9.87h-1.857V5.47c0-.398-.086-.692-.257-.88-.172-.193-.457-.29-.855-.29-.544 0-.938.21-1.182.63v4.942H11.96V0h1.857v3.676zM23.4 9.871a2.063 2.063 0 01-.187-.623c-.45.501-1.034.752-1.754.752-.681 0-1.247-.197-1.697-.591a1.905 1.905 0 01-.668-1.491c0-.737.272-1.303.816-1.697.548-.394 1.339-.593 2.372-.598h.854v-.398c0-.321-.083-.578-.25-.771-.163-.193-.422-.29-.778-.29-.313 0-.56.075-.74.225-.175.15-.263.356-.263.617h-1.857c0-.402.124-.775.373-1.118.248-.343.6-.61 1.054-.803a3.805 3.805 0 011.53-.296c.856 0 1.535.217 2.037.65.505.428.758 1.032.758 1.812v3.014c.004.66.096 1.159.276 1.497v.11H23.4zM21.864 8.58c.274 0 .527-.06.758-.18.232-.125.403-.29.514-.495V6.71h-.694c-.93 0-1.424.32-1.484.964l-.007.109c0 .231.082.422.244.572.163.15.386.225.669.225zM28.65 1.208v1.71h1.19V4.28h-1.19v3.47c0 .258.05.442.148.553.099.112.287.167.566.167.205 0 .387-.015.546-.045v1.408a3.823 3.823 0 01-1.125.167c-1.302 0-1.966-.658-1.992-1.973V4.28h-1.015V2.918h1.015v-1.71h1.857zM30.97 8.959a.94.94 0 01.296-.72c.201-.184.452-.276.752-.276.304 0 .555.092.752.276a.93.93 0 01.302.72c0 .291-.099.529-.296.713-.197.18-.45.27-.758.27-.304 0-.555-.09-.752-.27a.932.932 0 01-.296-.713z" fill="#fff"/></svg>
